images/chat2.svg

<svg width="27" height="25" viewBox="0 0 27 25" fill="none" xmlns="http://www.w3.org/2000/svg">
<path d="M7.94444 12H7.95833M13.5 12H13.5139M19.0556 12H19.0694M26 12C26 18.0747 20.4028 22.9999 13.5 22.9999C11.4564 23.0068 9.43721 22.561 7.59028 21.6951L2.5 24L2.9375 17.8849C1.71111 16.1827 1 14.1642 1 12C1 5.92523 6.59722 1 13.5 1C20.4028 1 26 5.92523 26 12Z" stroke="black" stroke-width="2" stroke-linecap="round" stroke-linejoin="round"/>
</svg>

<svg xmlns="http://www.w3.org/2000/svg" width="27" height="25" fill="none"><path stroke="#000" stroke-linecap="round" stroke-linejoin="round" stroke-width="2" d="M7.944 12h.014m5.542 0h.014m5.542 0h.013M26 12c0 6.075-5.597 11-12.5 11a13.814 13.814 0 0 1-5.91-1.305L2.5 24l.438-6.115C1.71 16.183 1 14.165 1 12 1 5.925 6.597 1 13.5 1S26 5.925 26 12Z"/></svg>
